Adwaita++/apps/16/org.gnome.FeedReader.svg

<svg height="16" width="16" xmlns="http://www.w3.org/2000/svg">
  <path d="m2 2v1c0 .55016.45347 1 1 1 4.97056 0 9 4.02944 9 9 0 .55016.45347 1 1 1h1v-1c0-6.07513-4.92487-11-11-11zm0 4v1c0 .55016.45347 1 1 1 2.76143 0 5 2.23857 5 5 0 .55016.45347 1 1 1h1v-1c0-3.866-3.134-7-7-7zm2 4c-1.1045703 0-2 .895453-2 2s.8954297 2 2 2 2-.895453 2-2-.8954297-2-2-2z" fill="#474747"/>
</svg>

<svg xmlns="http://www.w3.org/2000/svg" width="16" height="16" version="1.1">
 <defs>
  <style id="current-color-scheme" type="text/css">
   .ColorScheme-Text { color:#474747; } .ColorScheme-Highlight { color:#5294e2; }
  </style>
  <linearGradient id="arrongin" x1="0%" x2="0%" y1="0%" y2="100%">
   <stop offset="0%" style="stop-color:#dd9b44"/>
   <stop offset="100%" style="stop-color:#ad6c16"/>
  </linearGradient>
  <linearGradient id="aurora" x1="0%" x2="0%" y1="0%" y2="100%">
   <stop offset="0%" style="stop-color:#09D4DF"/>
   <stop offset="100%" style="stop-color:#9269F4"/>
  </linearGradient>
  <linearGradient id="fitdance" x1="0%" x2="0%" y1="0%" y2="100%">
   <stop offset="0%" style="stop-color:#1AD6AB"/>
   <stop offset="100%" style="stop-color:#329DB6"/>
  </linearGradient>
  <linearGradient id="oomox" x1="0%" x2="0%" y1="0%" y2="100%">
   <stop offset="0%" style="stop-color:#efefe7"/>
   <stop offset="100%" style="stop-color:#8f8f8b"/>
  </linearGradient>
  <linearGradient id="rainblue" x1="0%" x2="0%" y1="0%" y2="100%">
   <stop offset="0%" style="stop-color:#00F260"/>
   <stop offset="100%" style="stop-color:#0575E6"/>
  </linearGradient>
  <linearGradient id="sunrise" x1="0%" x2="0%" y1="0%" y2="100%">
   <stop offset="0%" style="stop-color:#FF8501"/>
   <stop offset="100%" style="stop-color:#FFCB01"/>
  </linearGradient>
  <linearGradient id="telinkrin" x1="0%" x2="0%" y1="0%" y2="100%">
   <stop offset="0%" style="stop-color:#b2ced6"/>
   <stop offset="100%" style="stop-color:#6da5b7"/>
  </linearGradient>
  <linearGradient id="60spsycho" x1="0%" x2="0%" y1="0%" y2="100%">
   <stop offset="0%" style="stop-color:#df5940"/>
   <stop offset="25%" style="stop-color:#d8d15f"/>
   <stop offset="50%" style="stop-color:#e9882a"/>
   <stop offset="100%" style="stop-color:#279362"/>
  </linearGradient>
  <linearGradient id="90ssummer" x1="0%" x2="0%" y1="0%" y2="100%">
   <stop offset="0%" style="stop-color:#f618c7"/>
   <stop offset="20%" style="stop-color:#94ffab"/>
   <stop offset="50%" style="stop-color:#fbfd54"/>
   <stop offset="100%" style="stop-color:#0f83ae"/>
  </linearGradient>
  <linearGradient id="cyberneon" x1="0%" x2="0%" y1="0%" y2="100%">
   <stop offset="0" style="stop-color:#0abdc6"/>
   <stop offset="1" style="stop-color:#ea00d9"/>
  </linearGradient>
 </defs>
 <g transform="translate(-781,238.99987)">
  <path style="fill:currentColor" class="ColorScheme-Text" d="M 2 2 L 2 3 C 2 3.55016 2.45347 4 3 4 C 7.97056 4 12 8.02944 12 13 C 12 13.55016 12.45347 14 13 14 L 14 14 L 14 13 C 14 6.92487 9.07513 2 3 2 L 2 2 z M 2 6 L 2 7 C 2 7.55016 2.45347 8 3 8 C 5.76143 8 8 10.23857 8 13 C 8 13.55016 8.45347 14 9 14 L 10 14 L 10 13 C 10 9.134 6.866 6 3 6 L 2 6 z M 4 10 C 2.8954297 10 2 10.895453 2 12 C 2 13.104547 2.8954297 14 4 14 C 5.1045703 14 6 13.104547 6 12 C 6 10.895453 5.1045703 10 4 10 z" transform="translate(781,-238.99987)"/>
 </g>
</svg>
